public/formular-icons/english/upper-o.svg

<svg style="vertical-align:-.05ex" xmlns="http://www.w3.org/2000/svg" width="1.726ex" height="1.643ex" viewBox="0 -704 763 726" xmlns:xlink="http://www.w3.org/1999/xlink"><defs><path id="a" d="M740 435q0-115-64-222T511 42 304-22q-97 0-166 57T51 201q-1 8-1 43 0 102 48 194t129 163q124 103 249 103 38 0 48-1 97-14 156-86t60-182Zm-103 41q0 89-46 139t-115 50q-80 0-154-60-80-63-122-177t-43-212q0-90 43-143t114-54q90 0 171 79t123 215q29 95 29 163Z"/></defs><g stroke="currentColor" fill="currentColor" stroke-width="0"><use data-c="1D442" xlink:href="#a" transform="scale(1 -1)"/></g></svg>

<svg style="vertical-align: -0.05ex" xmlns="http://www.w3.org/2000/svg" width="1.726ex" height="1.643ex" role="img" focusable="false" viewBox="0 -704 763 726" xmlns:xlink="http://www.w3.org/1999/xlink"><defs><path id="MJX-60-TEX-I-1D442" d="M740 435Q740 320 676 213T511 42T304 -22Q207 -22 138 35T51 201Q50 209 50 244Q50 346 98 438T227 601Q351 704 476 704Q514 704 524 703Q621 689 680 617T740 435ZM637 476Q637 565 591 615T476 665Q396 665 322 605Q242 542 200 428T157 216Q157 126 200 73T314 19Q404 19 485 98T608 313Q637 408 637 476Z"></path></defs><g stroke="currentColor" fill="currentColor" stroke-width="0" transform="scale(1,-1)"><g data-mml-node="math"><g data-mml-node="mi"><use data-c="1D442" xlink:href="#MJX-60-TEX-I-1D442"></use></g></g></g></svg>
